icons/issue-tracked-in-24.svg

<svg xmlns="http://www.w3.org/2000/svg" width="24" height="24" viewBox="0 0 24 24"><path d="M12 2.5a9.5 9.5 0 100 19 .75.75 0 010 1.5C5.925 23 1 18.075 1 12S5.925 1 12 1s11 4.925 11 11a.75.75 0 01-1.5 0A9.5 9.5 0 0012 2.5z"/><path d="M13.759 17.48l3.728 3.314a.308.308 0 00.513-.23V18h4.25a.75.75 0 000-1.5H18v-2.564a.308.308 0 00-.513-.23L13.76 17.02a.308.308 0 000 .46zM12 14a2 2 0 100-4 2 2 0 000 4z"/></svg>

<svg xmlns="http://www.w3.org/2000/svg" width="24" height="24" viewBox="0 0 24 24">
  <defs/>
  <path d="M12,2.5 A9.5 9.5 0 1 0 12,21.5 A0.75 0.75 0 0 1 12,23 C5.925,23 1,18.075 1,12 C1,5.925 5.925,1 12,1 C18.075,1 23,5.925 23,12 A0.75 0.75 0 0 1 21.5,12 A9.5 9.5 0 0 0 12,2.5 Z"/>
  <path d="M13.759,17.48 L17.487,20.794 A0.308 0.308 0 0 0 18,20.564 L18,18 L22.25,18 A0.75 0.75 0 0 0 22.25,16.5 L18,16.5 L18,13.936 A0.308 0.308 0 0 0 17.487,13.706 L13.76,17.02 A0.308 0.308 0 0 0 13.76,17.48 Z M12,14 A2 2 0 1 0 12,10 A2 2 0 0 0 12,14 Z"/>
</svg>
